polaris-icons/icons/newicons/CardReaderChipMajor.svg

<svg width="20" height="20" viewBox="0 0 20 20" fill="none" xmlns="http://www.w3.org/2000/svg">
<path fill-rule="evenodd" clip-rule="evenodd" d="M13.8 11.5H6.2C5.6152 11.5 5.26681 11.5012 5.00855 11.5223C4.85093 11.5351 4.78468 11.5521 4.76692 11.5576C4.67765 11.6047 4.60469 11.6776 4.55765 11.7669C4.55214 11.7847 4.53514 11.8509 4.52227 12.0086C4.50117 12.2668 4.5 12.6152 4.5 13.2V15.4C4.5 15.4353 4.5 15.4685 4.50003 15.5C4.53149 15.5 4.56473 15.5 4.6 15.5H15.4C15.4353 15.5 15.4685 15.5 15.5 15.5C15.5 15.4685 15.5 15.4353 15.5 15.4V13.2C15.5 12.6152 15.4988 12.2668 15.4777 12.0086C15.4649 11.8509 15.4479 11.7847 15.4424 11.7669C15.3953 11.6776 15.3224 11.6047 15.2331 11.5576C15.2153 11.5521 15.1491 11.5351 14.9914 11.5223C14.7332 11.5012 14.3848 11.5 13.8 11.5ZM15.4887 15.9603L15.489 15.958ZM15.9579 15.489L15.9603 15.4887ZM4.03969 15.4887L4.04213 15.489ZM4.51098 15.9579L4.51134 15.9603ZM3.21799 11.092C3 11.5198 3 12.0799 3 13.2V15.4C3 15.9601 3 16.2401 3.10899 16.454C3.20487 16.6422 3.35785 16.7951 3.54601 16.891C3.75992 17 4.03995 17 4.6 17H15.4C15.9601 17 16.2401 17 16.454 16.891C16.6422 16.7951 16.7951 16.6422 16.891 16.454C17 16.2401 17 15.9601 17 15.4V13.2C17 12.0799 17 11.5198 16.782 11.092C16.5903 10.7157 16.2843 10.4097 15.908 10.218C15.4802 10 14.9201 10 13.8 10H6.2C5.0799 10 4.51984 10 4.09202 10.218C3.71569 10.4097 3.40973 10.7157 3.21799 11.092Z" fill="black"/>
<path fill-rule="evenodd" clip-rule="evenodd" d="M5 6.2C5 5.0799 5 4.51984 5.21799 4.09202C5.40973 3.71569 5.71569 3.40973 6.09202 3.21799C6.51984 3 7.0799 3 8.2 3H11.8C12.9201 3 13.4802 3 13.908 3.21799C14.2843 3.40973 14.5903 3.71569 14.782 4.09202C15 4.51984 15 5.0799 15 6.2V11.5H5V6.2ZM12 4.50008V10H13.5V6.2C13.5 5.6152 13.4988 5.26681 13.4777 5.00855C13.4649 4.85094 13.4479 4.78469 13.4424 4.76693C13.3953 4.67765 13.3224 4.60469 13.2331 4.55765C13.2153 4.55214 13.1491 4.53514 12.9914 4.52227C12.7641 4.50369 12.4669 4.50056 12 4.50008ZM10 10V4.5H8.2C7.6152 4.5 7.26681 4.50117 7.00855 4.52227C6.85093 4.53514 6.78468 4.55214 6.76692 4.55765C6.67765 4.60469 6.60469 4.67765 6.55765 4.76693C6.55214 4.78468 6.53514 4.85093 6.52227 5.00855C6.50117 5.26681 6.5 5.6152 6.5 6.2V10H10Z" fill="black"/>
</svg>

<svg viewBox="0 0 20 20" fill="none" xmlns="http://www.w3.org/2000/svg"><path fill-rule="evenodd" clip-rule="evenodd" d="M13.8 11.5h-7.6c-.585 0-.933.001-1.191.022-.158.013-.224.03-.242.036a.5.5 0 0 0-.21.209 1.255 1.255 0 0 0-.035.242c-.02.258-.022.606-.022 1.191v2.3h11v-2.3c0-.585-.001-.933-.022-1.191a1.253 1.253 0 0 0-.036-.242.5.5 0 0 0-.209-.21 1.253 1.253 0 0 0-.242-.035c-.258-.02-.606-.022-1.191-.022Zm1.689 4.46v-.002Zm.469-.471h.002Zm-11.918 0h.002Zm.471.469v.002Zm-1.293-4.866c-.218.428-.218.988-.218 2.108v2.2c0 .56 0 .84.109 1.054a1 1 0 0 0 .437.437c.214.109.494.109 1.054.109h10.8c.56 0 .84 0 1.054-.109a1 1 0 0 0 .437-.437c.109-.214.109-.494.109-1.054v-2.2c0-1.12 0-1.68-.218-2.108a2 2 0 0 0-.874-.874c-.428-.218-.988-.218-2.108-.218h-7.6c-1.12 0-1.68 0-2.108.218a2 2 0 0 0-.874.874Z" fill="#000"/><path fill-rule="evenodd" clip-rule="evenodd" d="M5 6.2c0-1.12 0-1.68.218-2.108a2 2 0 0 1 .874-.874c.428-.218.988-.218 2.108-.218h3.6c1.12 0 1.68 0 2.108.218a2 2 0 0 1 .874.874c.218.428.218.988.218 2.108v5.3h-10v-5.3Zm7-1.7v5.5h1.5v-3.8c0-.585-.001-.933-.022-1.191a1.253 1.253 0 0 0-.036-.242.5.5 0 0 0-.209-.21 1.255 1.255 0 0 0-.242-.035 13.522 13.522 0 0 0-.991-.022Zm-2 5.5v-5.5h-1.8c-.585 0-.933.001-1.191.022-.158.013-.224.03-.242.036a.5.5 0 0 0-.21.209 1.254 1.254 0 0 0-.035.242c-.02.258-.022.606-.022 1.191v3.8h3.5Z" fill="#000"/></svg>
